X: 1
T: Chicago Czarda\'s
M: 4/4
L: 1/8
Z: 2012 John Chambers <jc:trillian.mit.edu>
S: handwritten MS of unknown origin
K: Dm
|: "Dm"d<f e<d "A"eA3 | "Dm"d4 "C7"c4 | "F"aaaa "C7"bg3 | "F"a4 a4 |
| "F"aaaa "C7"bg3 | "Dm"a4 f4 | "Gm"gfed "A"eA3 | "Dm"d4 "C7"c4 |
| "F"aaaa "C7"bg3 | "Dm"a4 f4 | "Gm"gfed "A"eA=B^c |1 "Dm"d4 d4 :|["or" "Dm"d2 "A"A2 "Dm"d4 |]
